X:1
T:Let Me Go
T:Let Me Go
T:William Batchelder Bradbury
T:Lewis T. Hartsough, 1863
T:Public Domain Courtesy of the Cyber Hymnal™
T:Public Domain Courtesy of the Cyber Hymnal™
C:William Batchelder Bradbury
Z:Public Domain
Z:Courtesy of the Cyber Hymnal™
%%score 1 ( 2 3 )
L:1/8
Q:1/4=95
M:3/4
K:Ab
V:1 treble 
V:2 bass 
V:3 bass 
V:1
 [Ec]>[Ed] | [Ee]3 [Ec] [DB][CA] | [DF] [FA]3 [EG]>[DF] | [CE]3 [CA] (3([Cc]B)A | [EB]4 [Ec]>[Ed] | %5
w: 1.~Let me|go where saints are|go- ing, To the|man- sions of * the|blest; Let me|
w: 2.~Let me|go where none are|wea- ry, Where is|raised no wail * of|woe; Let me|
w: 3.~Let me|go, why should I|tar- ry? What has|earth to bind * me|here? What but|
w: 4.~Let me|go where tears and|sigh- ing, Are for|ev- er- more * un-|known, Where the|
w: 5.~Let me|go, there is a|glo- ry That my|soul hath longed * to|know, I am|
 [Ee]3 [Ec] [DB][CA] | [DF] [FA]3 [EG]>[DF] | [CE]3 [CA] [DB]>[B,G] | [CA]4 [EA]>[EB] | %9
w: go where my Re-|deem- er Has pre-|pared His peo- ple’s|rest. I would|
w: go and bathe my|spir- it, In the|rap- tures an- gels|know. Let me|
w: cares and toils and|sor- rows? What but|death and pain and|fear? Let me|
w: joy- ous songs of|glo- ry Call me|to a hap- pier|home. Let me|
w: thirst- ing for the|wa- ters, That from|crys- tal fount- ains|flow. There is|
 [Ec]3 [Ac] [Ad][Ac] | [Ac] [GB]3 [Ac]>[GB] | [CA]3 [Ac] [EB][EA] | [GB]4 [CA]>[DB] | %13
w: gain the realms of|bright- ness, Where they|dwell for- ev- er-|more; I would|
w: go, for bliss e-|ter- nal Lures my|soul a- way, a-|way, And the|
w: go, for hopes most|cher- ished, Blast- ed|round me oft- en|lie. O! I’ve|
w: go— I’d cease this|dy- ing, I would|gain life’s fair- er|plains; Let me|
w: where the an- gels|tar- ry, There the|saved for- ev- er|throng; There the|
 [Ec]3 [Ee] [Gd][Fc] | [FB] [Fd]3 [Fc]>[FB] | [EA]3 [Ec] [EB][DG] | [CA]4 ||"^Refrain" [Ec]>[Ed] | %18
w: join the friends that|wait me, O- ver|on the o- ther|shore.||
w: vic- tor’s song tri-|um- phant Thrills my|heart; I can- not|stay.||
w: ga- thered bright- est|flow- ers, But to|see them fade and|die.|Let me|
w: join the myr- iad|harp- ers, Let me|chant their rap- turous|strains.||
w: bright- ness wear- ies|ne- ver, There I’ll|sing re- demp- tion’s|song.||
 [Ee]3 [Ec] [DB][CA] | [DF] [FA]3 [EG]>[DF] | [CE]3 [CA] (3([Cc]B)A | [EB]4 [Ec]>[Ed] | %22
w: ||||
w: ||||
w: go, ’tis Je- sus|calls me, Let me|gain the realms * of|day; Bear me|
w: ||||
w: ||||
 [Ee]3 [Ec] [DB][CA] | [DF] [FA]3 [EG]>[DF] | [CE]3 [CA] [DB]>[B,G] | [CA]4 |] %26
w: ||||
w: ||||
w: o- ver, an- gel|pin- ions, Longs my|soul to be a-|way.|
w: ||||
w: ||||
V:2
 A,>[A,B,] | [A,C]3 A, [E,G,][F,A,] | [D,A,] [D,A,]3 [D,A,]>[D,A,] | A,3 A, [F,A,]>[F,A,] | %4
 [E,G,]4 A,>[A,B,] | [A,C]3 A, [E,G,][F,A,] | [D,A,] [D,A,]3 [D,A,]>[D,A,] | %7
 [E,A,]3 [E,A,] [E,G,]>E, | [A,,E,]4 [A,C]>[A,D] | [A,E]3 [A,E] [A,F][A,E] | %10
 [E,E] [E,D]3 [E,E]>[E,D] | [A,C]3 [A,E] [G,D][A,C] | [E,E]4 A,>B, | [A,C]3 [A,C] [E,B,]A, | %14
 [D,B,] [D,B,]3 [D,A,]>[D,B,] | [E,C]3 [E,A,] [E,G,][E,B,] | [A,,A,]4 || A,>[A,B,] | %18
 [A,C]3 A, [E,G,][F,A,] | [D,A,] [D,A,]3 [D,A,]>[D,A,] | A,3 A, [F,A,]>[F,A,] | [E,G,]4 A,>[A,B,] | %22
 [A,C]3 A, [E,G,][F,A,] | [D,A,] [D,A,]3 [D,A,]>[D,A,] | [E,A,]3 [E,A,] [E,G,]>E, | [A,,E,]4 |] %26
V:3
 A,3/2 x/ | x3 A, x2 | x6 | A,3 A, x2 | x4 A,3/2 x/ | x3 A, x2 | x6 | x11/2 E,/ | x6 | x6 | x6 | %11
 x6 | x4 A,>B, | x5 A, | x6 | x6 | x4 || A,3/2 x/ | x3 A, x2 | x6 | A,3 A, x2 | x4 A,3/2 x/ | %22
 x3 A, x2 | x6 | x11/2 E,/ | x4 |] %26

